site/plugins/site/icons/archive.svg

<svg width="16" height="16" viewBox="0 0 16 16" class="icon icon-archive">
  <path d="M10.5 1l3.5 3.5v10.5h-12v-14h8.5zM7 4h1v-1h-1v1zM6 4v1h1v-1h-1zM7 6h1v-1h-1v1zM6 3h1v-1h-1v1zM7 2h1v-1h-1v1zM6 6v1h1v-1h-1zM7 8h1v-1h-1v1zM6 9.28c-0.615 0.355-0.996 1.010-1 1.72v1h4v-1c0-1.105-0.895-2-2-2v-1h-1v1.28zM8 10v1h-2v-1h2z"></path>
</svg>

<svg width="16" height="16" class="icon icon-archive"><path d="M10.5 1L14 4.5V15H2V1h8.5zM7 4h1V3H7v1zM6 4v1h1V4H6zm1 2h1V5H7v1zM6 3h1V2H6v1zm1-1h1V1H7v1zM6 6v1h1V6H6zm1 2h1V7H7v1zM6 9.28A2 2 0 005 11v1h4v-1a2 2 0 00-2-2V8H6v1.28zM8 10v1H6v-1h2z"/></svg>
